assets/svg/1F60A.svg

<svg xmlns="http://www.w3.org/2000/svg" viewBox="0 0 64 64" enable-background="new 0 0 64 64"><path fill="#fbb041" d="m64.12 31.936c0 17.71-14.352 32.06-32.07 32.06-17.706 0-32.06-14.354-32.06-32.06 0-17.708 14.352-32.06 32.06-32.06 17.714 0 32.07 14.354 32.07 32.06"/><g opacity=".987"><path fill="#e79d3c" d="m15.255 41.21c-5.679-12.189-5.933-25.31-.796-36.16-8.705 5.73-14.459 15.579-14.459 26.783 0 17.71 14.352 32.06 32.06 32.06.321 0 .629-.04.943-.048-7.351-6.185-13.548-13.63-17.746-22.64"/></g><path fill="#633d19" d="m44.564 39.39c-.626 0-1.247 0-1.873 0-.1 0-.162.035-.25.049-.099.014-.189.018-.285.058-.158.06-.289.154-.407.264-.024.021-.052.025-.075.051-4.522 4.408-10.447 5.414-16.09 2.511-3.03-1.558-2.78-2.932-6.02-2.932-1.327 0-1.822 1.538-1.018 2.459 7.315 8.443 19.726 8.443 27.05 0 .796-.922.305-2.46-1.022-2.46"/><g opacity=".48"><path fill="#ed307c" d="m19.361 34.09c0 3.58-3.56 6.48-7.952 6.48-4.388 0-7.944-2.9-7.944-6.48 0-3.581 3.556-6.481 7.944-6.481 4.392-.0001 7.952 2.9 7.952 6.481"/></g><g opacity=".48"><path fill="#ed307c" d="m60.54 34.09c0 3.58-3.557 6.48-7.948 6.48-4.388 0-7.944-2.9-7.944-6.48 0-3.581 3.557-6.481 7.944-6.481 4.391-.0001 7.948 2.9 7.948 6.481"/></g><g fill="#633d19"><path d="m29.12 25.01c-1.386-3.786-4.531-7.41-8.875-7.327-4.051.079-6.491 4.364-7.812 7.607-.826 2.028 2.455 2.899 3.269.903.848-2.083 2.099-4.384 4.388-5.081 2.625-.804 5.03 2.8 5.758 4.8.747 2.034 4.02 1.155 3.272-.902"/><path d="m35.01 24.97c1.384-3.784 4.53-7.408 8.872-7.325 4.052.077 6.493 4.362 7.813 7.607.824 2.026-2.455 2.897-3.271.901-.846-2.085-2.097-4.382-4.388-5.083-2.624-.802-5.03 2.802-5.759 4.802-.743 2.034-4.02 1.155-3.267-.902"/></g></svg>

<?xml version="1.0" encoding="UTF-8" standalone="no"?>
<!-- Generator: Adobe Illustrator 16.0.0, SVG Export Plug-In . SVG Version: 6.00 Build 0)  -->

<svg
   xmlns:dc="http://purl.org/dc/elements/1.1/"
   xmlns:cc="http://creativecommons.org/ns#"
   xmlns:rdf="http://www.w3.org/1999/02/22-rdf-syntax-ns#"
   xmlns:svg="http://www.w3.org/2000/svg"
   xmlns="http://www.w3.org/2000/svg"
   xmlns:sodipodi="http://sodipodi.sourceforge.net/DTD/sodipodi-0.dtd"
   xmlns:inkscape="http://www.inkscape.org/namespaces/inkscape"
   version="1.1"
   id="Layer_1"
   x="0px"
   y="0px"
   width="64px"
   height="64px"
   viewBox="0 0 64 64"
   enable-background="new 0 0 64 64"
   xml:space="preserve"
   inkscape:version="0.48.5 r10040"
   sodipodi:docname="1F60A.svg"
   inkscape:export-filename="D:\TESTINGEMOJI\SVGTEST\1F60A.png"
   inkscape:export-xdpi="90"
   inkscape:export-ydpi="90"><metadata
   id="metadata3073"><rdf:RDF><cc:Work
       rdf:about=""><dc:format>image/svg+xml</dc:format><dc:type
         rdf:resource="http://purl.org/dc/dcmitype/StillImage" /><dc:title></dc:title></cc:Work></rdf:RDF></metadata><defs
   id="defs3071" /><sodipodi:namedview
   pagecolor="#ffffff"
   bordercolor="#666666"
   borderopacity="1"
   objecttolerance="10"
   gridtolerance="10"
   guidetolerance="10"
   inkscape:pageopacity="0"
   inkscape:pageshadow="2"
   inkscape:window-width="843"
   inkscape:window-height="651"
   id="namedview3069"
   showgrid="false"
   inkscape:zoom="6.796875"
   inkscape:cx="32"
   inkscape:cy="32"
   inkscape:window-x="545"
   inkscape:window-y="298"
   inkscape:window-maximized="0"
   inkscape:current-layer="Layer_1" />
<g
   id="g3031">
	<g
   id="g3033">
		<g
   id="g3035">
			<path
   fill="#FBB041"
   d="M64.124,31.936C64.124,49.646,49.772,64,32.058,64C14.352,64,0,49.646,0,31.936     C0,14.228,14.352-0.126,32.058-0.126C49.772-0.126,64.124,14.228,64.124,31.936z"
   id="path3037" />
		</g>
	</g>
	<g
   opacity="0.9866"
   id="g3039">
		<g
   id="g3041">
			<g
   id="g3043">
				<path
   fill="#E79D3C"
   d="M15.255,41.207C9.576,29.018,9.322,15.897,14.459,5.05C5.754,10.78,0,20.629,0,31.833      c0,17.71,14.352,32.062,32.058,32.062c0.321,0,0.629-0.04,0.943-0.048C25.65,57.662,19.453,50.217,15.255,41.207z"
   id="path3045" />
			</g>
		</g>
	</g>
	<g
   id="g3047">
		<g
   id="g3049">
			<path
   fill="#633D19"
   d="M44.564,39.392c-0.626,0-1.247,0-1.873,0c-0.1,0-0.162,0.035-0.25,0.049     c-0.099,0.014-0.189,0.018-0.285,0.058c-0.158,0.06-0.289,0.154-0.407,0.264c-0.024,0.021-0.052,0.025-0.075,0.051     c-4.522,4.408-10.447,5.414-16.095,2.511c-3.03-1.558-2.78-2.932-6.023-2.932c-1.327,0-1.822,1.538-1.018,2.459     c7.315,8.443,19.726,8.443,27.048,0C46.382,40.93,45.891,39.392,44.564,39.392z"
   id="path3051" />
		</g>
	</g>
	<g
   opacity="0.48"
   id="g3053">
		<g
   id="g3055">
			<path
   fill="#ED307C"
   d="M19.361,34.093c0,3.58-3.56,6.48-7.952,6.48c-4.388,0-7.944-2.9-7.944-6.48     c0-3.581,3.556-6.481,7.944-6.481C15.801,27.611,19.361,30.512,19.361,34.093z"
   id="path3057" />
		</g>
	</g>
	<g
   opacity="0.48"
   id="g3059">
		<g
   id="g3061">
			<path
   fill="#ED307C"
   d="M60.544,34.093c0,3.58-3.557,6.48-7.948,6.48c-4.388,0-7.944-2.9-7.944-6.48     c0-3.581,3.557-6.481,7.944-6.481C56.987,27.611,60.544,30.512,60.544,34.093z"
   id="path3063" />
		</g>
	</g>
	<path
   fill="#633D19"
   d="M29.116,25.008c-1.386-3.786-4.531-7.41-8.875-7.327c-4.051,0.079-6.491,4.364-7.812,7.607   c-0.826,2.028,2.455,2.899,3.269,0.903c0.848-2.083,2.099-4.384,4.388-5.081c2.625-0.804,5.027,2.8,5.758,4.8   C26.591,27.944,29.868,27.065,29.116,25.008z"
   id="path3065" />
	<path
   fill="#633D19"
   d="M35.007,24.97c1.384-3.784,4.53-7.408,8.872-7.325c4.052,0.077,6.493,4.362,7.813,7.607   c0.824,2.026-2.455,2.897-3.271,0.901c-0.846-2.085-2.097-4.382-4.388-5.083c-2.624-0.802-5.026,2.802-5.759,4.802   C37.531,27.906,34.252,27.027,35.007,24.97z"
   id="path3067" />
</g>
</svg>
